svg/m/SV.svg

<svg width="20" height="15" viewBox="0 0 20 15" fill="none" xmlns="http://www.w3.org/2000/svg">
<mask id="mask0" mask-type="alpha" maskUnits="userSpaceOnUse" x="0" y="0" width="20" height="15">
<rect width="20" height="15" fill="white"/>
</mask>
<g mask="url(#mask0)">
<path fill-rule="evenodd" clip-rule="evenodd" d="M0 0V15H20V0H0Z" fill="#F7FCFF"/>
<mask id="mask1" mask-type="alpha" maskUnits="userSpaceOnUse" x="0" y="0" width="20" height="15">
<path fill-rule="evenodd" clip-rule="evenodd" d="M0 0V15H20V0H0Z" fill="white"/>
</mask>
<g mask="url(#mask1)">
<path fill-rule="evenodd" clip-rule="evenodd" d="M0 0V5H20V0H0Z" fill="#3D58DB"/>
<path fill-rule="evenodd" clip-rule="evenodd" d="M0 10V15H20V10H0Z" fill="#3D58DB"/>
<path d="M12.1409 7.41137C12.1409 8.66844 11.1218 9.68749 9.86474 9.68749C8.60768 9.68749 7.58862 8.66844 7.58862 7.41137C7.58862 6.15431 8.60768 5.13525 9.86474 5.13525C11.1218 5.13525 12.1409 6.15431 12.1409 7.41137Z" stroke="#E8AA00" stroke-width="0.625"/>
<path fill-rule="evenodd" clip-rule="evenodd" d="M8.63166 6.03882C8.63166 6.03882 8.03632 7.01861 8.03632 7.69123C8.03632 8.36386 8.74893 9.20929 9.8701 9.20929C10.9637 9.20929 11.7498 8.55603 11.7736 7.69123C11.7973 6.82644 11.1852 6.2108 11.1852 6.2108C11.1852 6.2108 11.5317 7.45587 11.3584 7.96039C11.1852 8.46491 10.6246 9.07533 9.8701 8.99761C9.11562 8.9199 8.39961 7.99125 8.39961 7.69123C8.39961 7.39122 8.63166 6.03882 8.63166 6.03882Z" fill="#1E601B"/>
<path d="M8.85028 7.70506H10.8548" stroke="#188396" stroke-width="0.625"/>
<path d="M9.03687 7.37864H10.7616" stroke="#E8AA00" stroke-width="0.625"/>
<path d="M10.656 7.75696H9.12084L9.89541 6.47177L10.656 7.75696Z" stroke="#E8AA00" stroke-width="0.625"/>
</g>
</g>
</svg>

<svg width="20" height="15" fill="none" xmlns="http://www.w3.org/2000/svg">
  <mask id="a" maskUnits="userSpaceOnUse" x="0" y="0" width="20" height="15">
    <path fill="#fff" d="M0 0h20v15H0z"/>
  </mask>
  <g mask="url(#a)">
    <path fill-rule="evenodd" clip-rule="evenodd" d="M0 0v15h20V0H0z" fill="#F7FCFF"/>
    <mask id="b" maskUnits="userSpaceOnUse" x="0" y="0" width="20" height="15">
      <path fill-rule="evenodd" clip-rule="evenodd" d="M0 0v15h20V0H0z" fill="#fff"/>
    </mask>
    <g mask="url(#b)">
      <path fill-rule="evenodd" clip-rule="evenodd" d="M0 0v5h20V0H0zm0 10v5h20v-5H0z" fill="#3D58DB"/>
      <path d="M12.14 7.411a2.276 2.276 0 11-4.551 0 2.276 2.276 0 014.552 0z" stroke="#E8AA00" stroke-width=".625"/>
      <path fill-rule="evenodd" clip-rule="evenodd" d="M8.632 6.039s-.596.98-.596 1.652c0 .673.713 1.518 1.834 1.518 1.094 0 1.88-.653 1.904-1.518.023-.864-.589-1.48-.589-1.48s.347 1.245.173 1.75c-.173.504-.733 1.114-1.488 1.037C9.116 8.92 8.4 7.99 8.4 7.69c0-.3.232-1.652.232-1.652z" fill="#1E601B"/>
      <path d="M8.85 7.705h2.005" stroke="#188396" stroke-width=".625"/>
      <path d="M9.037 7.379h1.725m-.106.378H9.121l.774-1.285.761 1.285z" stroke="#E8AA00" stroke-width=".625"/>
    </g>
  </g>
</svg>
